X: 042
T: a French Cotillion
%R: jig, march
Z: 2017 John Chambers <jc:trillian.mit.edu>
B: John Treat - "Gamut for the Fifes", 1779, p.3 #2
F: https://archive.org/details/GamutFortheFifes
M: 6/8
L: 1/8
K: G
% - - - - - - - - - - - - - - - - - - - - - - - - -
A |\
B2A B2A | BcB Bcd | c2B c2B | ABA A2B |\
cde edc | Bcd dcB | ABc BAB | G2G G2 :|
|: z |\
ded dBG | e2e e3  | cdc cBA | d2d d3 |\
G2A B2G | d2B g2d | edc BAB | G2G G2 :|
% - - - - - - - - - - - - - - - - - - - - - - - - -
